!!!OTL: Die elfjaehrige Markgraefin Et quam sick es Heerken ut Dania,
!!!ARE: Europa, Mitteleuropa, Deutschland (BRD), Westfalen
!!!YOR: 2, S. 281
!!    1842 aufgezeichnet
!!!SCT: Q0053B
!!!YEM: Copyright 1995, estate of Helmut Schaffrath.
**kern
*ICvox
*Ivox
*M3/4
*k[b-]
*F:
{4c
=1
4f
4f
4g
=2
4a
4a
4cc
=3
4a
4b-
4a
=4
4f
4r}
{8a
8b-
=5
4cc
4cc
4dd
=6
4cc
4cc
8dd
8ee
=7
4ff
4dd
4ee
=8
4ff
4r}
{8a
8b-
=9
4cc
4cc
4b-
=10
4a
4g
8a
8a
=11
4f
4e
8f
8a
=12
4g
4g}
{8a
8b-
=13
4cc
4cc
4b-
=14
4a
4g
4a
=15
4f
4d
4e
=16
4f
4f}
==
!!!AGN: Ballade, Braut - Werbung, Hochzeit, Minderjaehrige, Tod
!!!ONB: ESAC (Essen Associative Code) Database: BALLADE
!!!AMT: simple triple
!!!AIN: vox
!!!EED: Helmut Schaffrath
!!!EEV: 1.0
*-
